X:1
T:Contrapuctus VI a 4 in Stylo Francese (A = 415 Hz) Triplet version
T:BWV 1080 The Art of Fugue
T:J. S. Bach
%%score { ( 1 3 ) | 2 } { 4 | 5 }
L:1/8
Q:1/4=96
M:2/2
K:E
V:1 alto1 nm="Harp"
V:3 alto1 
V:2 alto 
V:4 tenor nm="Harp"
V:5 bass 
V:1
"^Andante" z8 | g2 (3:2:2c2 d (3:2:2e2 f g2 | a2 (3:2:2g2 f e2- e/d/e/f/ | %3
 (3:2:2g2 f e/d/c/B/ B/4A/4B/4A/4B/4A/4B/4A/4 G2- | (3:2:2G2 ^A B2- (3:2:2B2 A (3:2:2^B2 c | %5
 d2- d/e/d/c/ ^B2 (3:2:2c2 d | (3:2:2e2 d (3:2:2e2 c d4- | %7
 (3:2:2d2 c (3:2:2B2 ^A (3:2:2G2 g (3:2:2f2 e | d2 z2 z4 | z4 G2 (3:2:2d2 c | %10
 (3:2:2B2 ^A G2 =G2 (3:2:2^G2 A | B2- B/c/B/^A/ G4- | G3- G/4G/4A/4B/4 c4- | %13
 c2- c-c/4c/4d/4e/4 f4- | (6:4:3f2 e/d/ (3:2:2e2 f (6:4:3g2 f/e/ (3:2:2d2 ^e | %15
 f2 z2 g2 (3:2:2c2 d | (3:2:2e2 f g2 a2 (3:2:2g2 f | e2- e/d/e/f/ g2 z2 | z8 | z8 | %20
 z4 (3:2:2z2 c (3:2:2B2 A | (3:2:2G2 A B2- B-B/4E/4F/4G/4 (3:2:2A2 A | %22
 (6:4:3A2 G/F/ (3:2:2G2 A (3:2:2B2 B (3:2:2c2 d | (3:2:2e2 d (3:2:2e2 f (3:2:2d2 c d2- | %24
 (6:4:3d2 c/^B/ c-c/4=B/4A/4G/4 (3:2:2F2 A (3:2:2G2 F | E2- E/D/C/^B,/ D2 (3:2:2z2 c | %26
 F2- F/A/G/F/ E/G/^A/^B/ c2 | z/ B/c/d/ (6:4:3e2 d/c/ B4- | (3:2:2B2 G (3:2:2c2 B A4- | %29
 (3:2:2A2 F (3:2:2B2 A G4- | (6:4:3G2 F/E/ (3:2:2F2 D (3:2:2E2 F E/4D/4E/4D/4E/4D/4E/4D/4 | %31
 E/4D/4E/4D/4E/4D/4C/4^B,/4 C2- (3:2:2C2 D (3:2:2E2 C | F-F/4d/4e/4f/4 (3:2:2e2 d (3:2:2c2 B A2 | %33
 G z z2 z4 | c4 (3:2:2F4 G2 | (3:2:2A4 B2 c4 | =d4 (3:2:2c4 B2 | A4- (3:2:2A2 G (3:2:2A2 B | %38
 c2- c/=d/c/B/ A/c/d/e/ f2- | f/=g/f/e/ =d/c/B/A/ A/4G/4A/4G/4A/4G/4F/4E/4 A2- | %40
 A/G/F/G/ A/B/c/d/ (3:2:2e2 =d c/B/A/G/ | %41
 (6:4:3A2 B/c/ (3:2:2F2 f A-A/4G/4F/4G/4 A/4G/4A/4G/4A/4G/4A/ | %42
 A2 (3:2:2z2 B E-E/4F/4E/4D/4 (3:2:2E2 F | G2- G/F/G/^A/ (3:2:2B2 F B2- | %44
 B2- B/^A/4G/4A/^B/ (3:2:2c2 d e2- | (3:2:2e2 e (3:2:2d2 c (6:4:3^B2 A/G/ c2- | %46
 c-c/4B/4c/4^A/4 B2- B-B/4=A/4B/4G/4 A2 | (3:2:2G2 F E2- (3:2:2E2 F (3:2:2G2 A | %48
 (6:4:3F2 d/e/ (3:2:2f2 ^B (3:2:2c2 d c/4B/4c/4B/4c/4B/4c/ | %49
 (3:2:2c2 d (3:2:2e2 f g3- g/4g/4f/4e/4 | d4- (3:2:2d2 c (3:2:2d2 e | f3- f/4f/4e/4d/4 c4- | %52
 (3:2:2c2 ^B (3:2:2c2 d e3- e/4e/4d/4c/4 | B4- (3:2:2B2 B (3:2:2e2 d | %54
 (3:2:2c2 B A2- (3:2:2A2 G (3:2:2G2 F | (3:2:2E2 ^E (3:2:2F2 G (3:2:2A2 ^A (3:2:2^B2 c | %56
 d2 (3:2:2g2 f (3:2:2e2 d c2 | ^B2 (3:2:2c2 d e2- e/f/e/d/ | c2 z2 z4 | z8 | z8 | z8 | z8 | z4 G4 | %64
 (3:2:2C4 D2 (3:2:2E4 F2 | G4 A4 | (3:2:2G4 F2 E4- | (3:2:2E2 D (3:2:2E2 F G4- | %68
 G-G/4C/4D/4E/4 F2- F4- | F-F/4B,/4C/4D/4 E2- (3:2:2E2 C (3:2:2F2 E | %70
 (3:2:2D2 E (3:2:2B2 A (3:2:2G2 B (3:2:2e2 =d | c2- (3c z c ^B2- (3^B z d | %72
 !fermata!G2 z d/4e/4f/ e/d/c/^B/ c2- | (3:2:2c2 d c/4^B/4c/4B/4c/4B/4c/ c2 z2 | z4 c4 | %75
 z4 (3:2:2z2 c (3:2:2f2 ^e | (3:2:2f2 g (3:2:2a2 f (6:4:3g2 a/b/ a/g/f/^e/ | f8- | %78
 (3:2:2f2 ^e (3:2:2f2 d !fermata!e4 |] %79
V:2
 z8 | z8 | z4 C2 (3:2:2G2 F | (3:2:2E2 D C2 ^B,2 (3:2:2C2 D | E2- E/F/E/D/ C2 (3:2:2D2 E | %5
 F2 E2- (3:2:2E2 D (3:2:2E2 F | G4- (3:2:2G2 ^A B-B/4A/4G/4=G/4 | G4 (3:2:2d4 c2 | %8
 (3:2:2B4 ^A2 G4 | =G4 (3:2:2^G4 ^A2 | B4- (3:2:2B2 c (3:2:2B2 ^A | %11
 G2- (3:2:2G2 =G ^G3- G/4F/4E/4D/4 | E4- E3- E/4E/4F/4G/4 | A4- (3:2:2A2 ^A c^B/4A/4B/4c/4 | %14
 d2- (6:4:3d2 c/B/ c2- (3:2:2c2 B | (3:2:2A2 F (3:2:2E2 D (3:2:2C2 ^B c2- | %16
 (3:2:2c2 ^A (3:2:2^B2 G (3:2:2E2 D (3:2:2E2 F | G2- (3:2:2G2 A (3:2:2G2[K:alto1] f e/d/c/^B/ | %18
 c2- c/B/^A/G/ (3:2:2A2 F B2- | %19
 (6:4:3B2 ^A/G/ B/4A/4B/4A/4B/4A/4B/ (3:2:2B2 =A A/4G/4A/4G/4A/4G/4F/4G/4 | %20
 (3:2:2A2 c (3:2:2B2 A G2- (3:2:2G2 F |[K:alto] (3:2:2E2 F (3:2:2E2 =D C2 F2- | %22
 (3:2:2F2 D E2- (3:2:2E2 D (3:2:2E2 F | G2 c2 F2 z2 | E4 (3:2:2B4 A2 | (3:2:2G4 F2 E4 | %26
 D4 (3:2:2E4 F2 | G4- (3:2:2G2 A (3:2:2G2 F | E4- (3:2:2E2 C (3:2:2F2 E | %29
 D4- (3:2:2D2 B, (3:2:2E2 D | C4- C2 ^B,2 | G2 (3:2:2C2 D (3:2:2E2 F G2 | %32
 A2 (3:2:2G2 F E2- E/D/E/F/ | (3:2:2G2 A (3:2:2B2 c (3:2:2F2 =d (6:4:3G2 A/B/ | %34
 (3:2:2^E2 G C2- (3:2:2C2 C (3:2:2D2 E | (3:2:2F2 ^E (3:2:2F2 G (6:4:3A2 B/c/ B/A/G/F/ | %36
 (6:4:3B2 A/G/ (3:2:2A2 ^E (6:4:3F2 G/A/ (3:2:2D2 E | F2 z2 z4 | z8 | z8 | z8 | %41
 E2 (3:2:2A,2 B, (3:2:2C2 =D E2 | F2 (3:2:2E2 =D C2- C/B,/C/^D/ | %43
 (3:2:2E2 B, E2- E2- E/D/4C/4D/^E/ | (3:2:2F2 C F2- F2 E-E/4G/4A/4B/4 | c2 F2- F2 (6:4:3E2 D/C/ | %46
 D2 (3:2:2G2 F (3:2:2E2 D (3:2:2C2 ^B, | C4- (3:2:2C2 D (3:2:2E2 F | %48
 D2 z z/4 A/4G/4F/4 (3:2:2E2 F G2- | G2 z2 z z/4 d/4c/4^B/4 c2- | c3- c/4c/4B/4^A/4 B2 z2 | %51
 z z/4 c/4B/4^A/4 B2- B3- B/4B/4=A/4G/4 | A2 z2 z z/4 B/4A/4G/4 A2- | A3- A/4A/4G/4F/4 G4- | %54
 (3:2:2G2 C (3:2:2F2 E (3:2:2D2 C ^B,2 | C4- C/C/D/E/ D/C/^B,/^A,/ | %56
 ^B,2- B,/G,/^A,/B,/ (3:2:2C2 D (3:2:2E2 F | G4 (3:2:2C4 D2 | (3:2:2E4 F2 G4 | A4 (3:2:2G4 F2 | %60
 E4- (3:2:2E2 D (3:2:2E2 F | G2- G/B,/C/D/ E/F/E/D/ C/E/F/G/ | %62
 A/B/A/G/ F/F,/G,/A,/ B,/C/B,/A,/ G,/A,/G,/F,/ | %63
 E,-E,/4G,/4^A,/4^B,/4 C2- (3:2:2C2 =B, (3:2:2C2 D | E2 z2 C2 (3:2:2G2 F | %65
 (3:2:2E2 D C2 ^B,2 (3:2:2C2 D | E2- E/F/E/D/ (3:2:2C2 G, (3:2:2A,2 B, | %67
 C4- (3:2:2C2 G, (3:2:2C2 B, | (3:2:2A,2 G, A,2- (3:2:2A,2 F, (3:2:2B,2 A, | %69
 (3:2:2G,2 F, G,4 (3:2:2F,2 C | (3:2:2B,2 D (3:2:2E2 F (3:2:2E2 F G2 | %71
 (3:2:2G2 ^E (3:2:2F2 G A2- (3A z A | !fermata!D2 z ^B c z (3:2:2z2 D | %73
 (3:2:2E2 F DF- F-F/4F/4^E/4D/4 (3:2:2E2 G | (3:2:2C2 B, (3:2:2A,2 =D G,-G,/4G/4A/4B/4 A/G/F/^E/ | %75
 (3:2:2F2 C (3:2:2D2 ^E F2 (3:2:2c2 B | (3:2:2A2 G F2 ^E2 (3:2:2F2 G | A2- A/B/A/G/ F2- F/G/F/^E/ | %78
 D z (3:2:2z2 F !fermata!G4 |] %79
V:3
 x8 | x8 | x8 | x8 | x8 | x8 | x8 | x8 | x8 | x8 | x8 | x8 | x8 | x8 | x8 | x8 | x8 | x8 | x8 | %19
 x8 | x8 | x8 | x8 | x8 | x8 | x8 | x8 | x8 | x8 | x8 | x8 | x8 | x8 | x8 | x8 | x8 | x8 | x8 | %38
 x8 | x8 | x8 | x8 | x8 | x8 | x8 | x8 | x8 | x8 | x8 | x8 | x8 | x8 | x8 | x8 | x8 | x8 | x8 | %57
 x8 | x8 | x8 | x8 | x8 | x8 | x8 | x8 | x8 | x8 | x8 | x8 | x8 | x8 | x8 | x8 | x8 | x8 | %75
 (3:2:2F4 G2 (3:2:2A4 B2 | c4 =d4 | (3:2:2c4 B2 A4- | (3:2:2A2 G (3:2:2A2 ^B c4 |] %79
V:4
 z8 | z8 | z8 | z8 | z8 | z8 | C2 (3:2:2G,2 ^A, (3:2:2B,2 C D2 | E2 (3:2:2D2 C B,2- B,/^A,/B,/C/ | %8
 D6 C2- | (3:2:2C2 ^A, (3:2:2D2 C (3:2:2B,2 C (3:2:2B,2 A, | %10
 (3:2:2G,2 D- (3:2:2D2 =D (3:2:2^D2 ^A, (3:2:2B,2 =G, | (3:2:2G,2 D, E,2- E,/F,/E,/D,/ C,2- | %12
 C,-C,/4G,/4A,/4B,/4 (3:2:2C2 B, (3:2:2A,2 B, (3:2:2A,2 G, | %13
 F,-F,/4C/4D/4E/4 (3:2:2F2 E (3:2:2D2 E (3:2:2D2 C | ^B,2 G,2- G,2 z2 | C4 G2- GF | %16
 (3:2:2E4 D2 C4 | ^B,4 (3:2:2C4 D2 | E4- (3:2:2E2 F (3:2:2E2 D | C2 z2 B,4 | %20
 (3:2:2E,4 F,2 (3:2:2G,4 A,2 | B,4 C4 | (3:2:2B,4 A,2 G,4- | (3:2:2G,2 F, (3:2:2G,2 ^A, B,2 z2 | %24
 z8 | B,2 (3:2:2E,2 F, (3:2:2G,2 A, B,2 | =C2 (3:2:2B,2 A, G,2- G,/F,/G,/A,/ | %27
 B,2- B,/^A,/B,/C/ D2 z2 | z8 | z8 | C,4 (3:2:2G,4 F,2 | (3:2:2E,4 D,2 C,4 | ^B,,4 C,2- C,D, | %33
 E,4- (3:2:2E,2 F, (3:2:2E,2 =D, | (3:2:2C,2 ^E, (3:2:2F,2 G, A,2 B,2 | C2- C/B,/A,/G,/ F,2 z2 | %36
 z4 C2 (3:2:2F,2 G, | (3:2:2A,2 B, C2 =D2 (3:2:2C2 B, | A,2- A,/G,/A,/B,/ C2- C/F,/G,/^A,/ | %39
 B,2 z2 z4 | z8 | z8 | z8 | z8 | z8 | z8 | z8 | C,2 (3:2:2G,2 F, (3:2:2E,2 D, C,2 | %48
 ^B,,2 (3:2:2C,2 D, E,2- E,/F,/E,/D,/ | (3:2:2C,2 ^B,, (3:2:2C,2 D, E, z z2 | %50
 z z/4 D,/4^E,/4=G,/4 ^G,2- G, z z2 | z4 z z/4 C,/4D,/4^E,/4 F,2- | F, z z2 z4 | %53
 z z/4 B,,/4C,/4D,/4 E,2- E,/F,/E,/D,/ C,/E,/F,/G,/ | %54
 A,/B,/A,/G,/ F,/E,/D,/C,/ ^B,,/F,/G,/A,/ G,/F,/E,/D,/ | C,/G,/A,/B,/ A,/G,/F,/^E,/ F,4- | %56
 F,/A,/G,/F,/ E,4 A,2 | G,2 z2 C2 (3:2:2G2 F | (3:2:2E2 D C2 ^B,2 (3:2:2C2 D | %59
 E2- E/G/F/E/ D/E/D/C/ ^B,2 | (3:2:2C2 G, C-C/4B,/4A,/4G,/4 (3:2:2A,2 F, B,2- | B,2 z2 z4 | %62
 z4 E,2 (3:2:2B,2 A, | (3:2:2G,2 F, E,2 D,2 (3:2:2E,2 F, | %64
 G,2- G,/A,/G,/F,/ E,/F,/E,/D,/ (3:2:2C,2 G, | (3:2:2C2 B, (3:2:2A,2 G, F, z z2 | %66
 z/ D,/E,/F,/ G,2- G,/A,/G,/F,/ E,2- | E,/D,/C,/^B,,/ C,4 (3:2:2z2 C, | %68
 (3:2:2F,2 E, (3:2:2D,2 C, D,2- (3:2:2D,2 B,, | (3:2:2E,2 D, (3:2:2C,2 ^B,, C,2- (3:2:2C,2 F,- | %70
 F,2 (3z z D, (3:2:2G,2 F, (3:2:2E,2 B, | (3:2:2C2 B, (3:2:2A,2 G, F,2- (3F, z F, | %72
 !fermata!F,2 z G, G, z (3:2:2z2 A, | (3:2:2G,2 A, G, z G,2 (3:2:2C2 B, | %74
 (3:2:2A,2 G, F,2 ^E,2 (3:2:2F,2 G, | A,2- A,/B,/A,/G,/ (3:2:2F,4 G,2 | %76
 (3:2:2A,2 B, (3:2:2C2 A, (3:2:2B,2 G, (3:2:2A,2 B, | %77
 C-C/4C,/4D,/4^E,/4 (3:2:2F,2 G, (3:2:2A,2 B, C/B,/A,/G,/ | %78
 F, z (3:2:2z2 [F,A,D] !fermata![^E,G,C]4 |] %79
V:5
 C,4 (3:2:2G,4 F,2 | (3:2:2E,4 D,2 C,4 | ^B,,4 (3:2:2C,4 D,2 | E,4- (3:2:2E,2 F, (3:2:2E,2 D, | %4
 (3:2:2C,2 C,, (3:2:2D,,2 E,, (3:2:2F,,2 G,, (3:2:2F,,2 E,, | %5
 (3:2:2D,,2 D, (3:2:2E,2 F, (3:2:2G,2 A, (3:2:2G,2 F, | E,2 C,2 G,4- | G,8- | %8
 (3:2:2G,2 D, (3:2:2G,2 F, (3:2:2E,2 C, (3:2:2E,2 C, | (3:2:2D,4 D,2 (3:2:2E,2 D, (3:2:2^E,2 =G, | %10
 (3:2:2G,2 F, E,2 D,4 | z8 | z8 | z8 | G,2 (3:2:2C,2 D, (3:2:2E,2 F, G,2 | %15
 A,2 (3:2:2G,2 F, E,2- E,/D,/E,/F,/ | G,4 (3:2:2z4 A,2 | %17
 (3:2:2G,2 F, E,2- E,-E,/4F,/4E,/4D,/4 C,2 | %18
 z z/4 C,/4D,/4E,/4 F,2- F,-F,/4D,/4E,/4F,/4 (3:2:2G,2 F, | %19
 (3:2:2E,2 C, (3:2:2F,2 E, D,-D,/4B,,/4C,/4D,/4 (3:2:2E,2 =D, | %20
 (3:2:2C,2 B,, (3:2:2C,2 D, (3:2:2E,2 D, (3:2:2E,2 F, | %21
 G,3- G,/4E,/4F,/4G,/4 (3:2:2A,2 G, (3:2:2F,2 E, | (3:2:2D,2 B,, E,2- (3:2:2E,2 F, (3:2:2E,2 D, | %23
 C,4 B,,-B,,/4F,/4G,/4A,/4 (3:2:2B,2 A, | (3:2:2G,2 E, (3:2:2A,2 C D,3- D,/4B,,/4C,/4D,/4 | %25
 (3:2:2E,2 D, C,2- C,/C,/B,,/A,,/ G,,/E,,/F,,/G,,/ | %26
 A,,/F,,/G,,/A,,/ (3:2:2B,,2 ^B,, C,/B,,/C,/D,/ E,2- | %27
 E,/D,/E,/F,/ G,2- (3:2:2G,2 F, (3:2:2E,2 D, | %28
 C,3- C,/4C,,/4D,,/4E,,/4 F,,3- F,,/4E,,/4D,,/4C,,/4 | %29
 B,,,3- B,,,/4B,,/4C,/4D,/4 E,3- E,/4D,/4C,/4B,,/4 | A,,4 G,,4- | G,,8- | %32
 (3:2:2G,,4 G,,2 (3:2:2A,,2 G,, F,,2 | (3:2:2E,,2 F,, (3:2:2G,,2 B,, B,,4- | %34
 (3:2:2B,,4 B,,2 (3:2:2A,,4 G,,2 | F,,2 (3:2:2C,2 B,, (3:2:2A,,2 G,, F,,2 | %36
 ^E,,2 (3:2:2F,,2 G,, A,,2- A,,/B,,/A,,/G,,/ | %37
 F,, F,2- F,/4E,/4=D,/4C,/4 (3:2:2B,,2 E, (3:2:2F,2 G, | (3:2:2A,2 G, F,2- (3:2:2F,2 E, =D,2- | %39
 (3:2:2D,2 C, (3:2:2B,,2 C, =D,/F,/E,/D,/ C,/B,,/A,,/G,,/ | %40
 (3:2:2F,,2 E,, (3:2:2F,,2 A,, G,,/E,,/F,,/G,,/ A,,/B,,/C,/=D,/ | C,2 =D,2 E,4- | %42
 E,/=D,/4C,/4D,/B,,/ A,,/4G,,/4A,,/4G,,/4A,,/4G,,/4F,,/4G,,/4 (3:2:2A,,2 A, (3:2:2G,2 F, | %43
 (3:2:2E,2 E,, (3:2:2=D,,2 C,, (3:2:2B,,,2 B,, (3:2:2A,,2 G,, | %44
 (3:2:2F,,2 F, (3:2:2E,2 D, C,-C,/4G,/4^A,/4^B,/4 (3:2:2C2 =B, | (3:2:2A,2 G, (3:2:2A,2 F, G,2 z2 | %46
 G,,4 (3:2:2C,,4 D,,2 | (3:2:2E,,4 F,,2 G,,4 | A,,4 (3:2:2G,,4 F,,2 | %49
 E,,4- (3:2:2E,,2 D,, (3:2:2E,,2 F,, | G,,4- G,,-G,,/4B,,/4^A,,/4G,,/4 F,,-F,,/4G,,/4F,,/4E,,/4 | %51
 (3:2:2D,,2 C,, (3:2:2D,,2 E,, F,,4- | %52
 F,,-F,,/4A,,/4G,,/4F,,/4 E,,-E,,/4F,,/4E,,/4D,,/4 (3:2:2C,,2 B,,, (3:2:2C,,2 D,, | %53
 E,,4- E,, z z2 | z8 | z8 | z8 | (3:2:2z2 G,, (3:2:2^A,,2 ^B,, (3:2:2C,2 D, E,2- | %58
 E,-E,/4E,/4F,/4G,/4 (3:2:2A,2 A,, G,,/A,/G,/F,/ E,/D,/C,/^B,,/ | %59
 C,/B,/A,/G,/ F,/E,/D,/C,/ ^B,,/C/^B,/^A,/ G,/F,/E,/D,/ | %60
 C,/D,/C,/B,,/ A,,/G,,/F,,/E,,/ F,,/C,/B,,/A,,/ G,,/F,,/E,,/D,,/ | %61
 E,,/B,,/C,/D,/ E,/F,/E,/D,/ C,/E,/F,/G,/ A,/B,/A,/G,/ | %62
 F,/F,,/G,,/A,,/ B,,/C,/B,,/A,,/ G,,/A,,/G,,/F,,/ E,,2- | %63
 E,,2- E,,-E,,/4D,,/4E,,/4F,,/4 G,,/A,/G,/ F,/ E,/D,/C,- | %64
 C,/B,,/A,,/G,,/ A,,/F,,/^B,, C,/A,,/G,,/F,,/ E,,/F,,/E,,/D,,/ | %65
 C,,/G,,/A,,/B,,/ C,/D,/E, z/ D,/E,/F,/ E,/D,/C,/^B,,/ | C,4- C,2- C,/=D,/C,/B,,/ | %67
 A,,2- A,,/A,,/G,,/F,,/ ^E,,2 z2 | z2 (3:2:2z2 G,, B,,-B,,/4C,/4B,,/4A,,/4 G,,2 | %69
 z2 (3:2:2z2 E,, A,,-A,,/4B,,/4A,,/4G,,/4 (3:2:2A,,2 ^A,, | %70
 (3:2:2B,,2 A,, (3:2:2G,,2 B,, (3:2:2E,2 D, (3:2:2C,2 E, | %71
 (3:2:2A,2 G, (3:2:2F,2 E, (3:2:2D,2 E, (3:2:2D,2 C, | %72
 !fermata!^B,,2 z G,, (3:2:2C,2 D, (3:2:2E,2 F, | (3:2:2G,2 F, (3:2:2G,2 G,, C,4- | C,8- | C,8- | %76
 C,8- | C,8- | !fermata!C,8 |] %79

